src/assets/orgs/compfest.svg

<svg width="311" height="309" viewBox="0 0 311 309" fill="none" xmlns="http://www.w3.org/2000/svg">
<mask id="mask0_3745_891" style="mask-type:alpha" maskUnits="userSpaceOnUse" x="0" y="0" width="311" height="309">
<path d="M76.565 308.433C76.0562 308.442 75.5333 308.289 75.108 308.01C69.1761 304.113 63.3003 300.13 57.2927 296.365C56.0656 295.612 54.2159 295.236 52.8162 295.514C30.6246 299.923 7.81637 276.43 12.5704 254.035C12.8417 252.734 12.0525 250.958 11.2694 249.688C8.05686 244.422 4.77027 239.23 1.31728 234.131C-0.359879 231.633 -0.254944 229.518 1.6257 227.262C5.72612 222.335 9.76479 217.34 13.8652 212.383C14.8021 211.254 16.7199 211.814 17.5854 212.998C35.7764 237.902 56.0701 260.627 80.2421 279.812C88.626 286.466 90.3197 298.357 81.8516 304.903C80.5528 305.907 79.2495 306.904 77.9568 307.912C77.5491 308.23 77.082 308.424 76.565 308.433Z" fill="#DDF7F9"/>
<path d="M76.565 308.433C76.0562 308.442 75.5333 308.289 75.108 308.01C69.1761 304.113 63.3003 300.13 57.2927 296.365C56.0656 295.612 54.2159 295.236 52.8162 295.514C30.6246 299.923 7.81637 276.43 12.5704 254.035C12.8417 252.734 12.0525 250.958 11.2694 249.688C8.05686 244.422 4.77027 239.23 1.31728 234.131C-0.359879 231.633 -0.254944 229.518 1.6257 227.262C5.72612 222.335 9.76479 217.34 13.8652 212.383C14.8021 211.254 16.7199 211.814 17.5854 212.998C35.7764 237.902 56.0701 260.627 80.2421 279.812C88.626 286.466 90.3197 298.357 81.8516 304.903C80.5528 305.907 79.2495 306.904 77.9568 307.912C77.5491 308.23 77.082 308.424 76.565 308.433Z" fill="#DDF7F9"/>
<path d="M171.211 46.1868C218.4 46.2238 258.677 81.0993 265.725 127.604C269.314 151.233 264.868 173.122 253.14 193.742C248.762 201.468 242.029 205.297 233.236 204.853C224.11 204.409 217.099 199.828 214.263 191.14C208.177 172.506 184.166 159.545 161.703 172.678C140.091 185.294 115.679 182.624 97.6559 166.383C80.6252 150.998 75.2606 125.076 84.5961 103.26C99.2282 69.063 133.968 46.1868 171.211 46.1868Z" fill="#DDF7F9"/>
<path d="M173.975 280.241C171.766 280.516 169.531 280.507 167.328 280.188C158.649 278.931 149.95 277.729 141.31 276.362C138.745 275.955 136.895 276.091 134.811 278.039C131.321 281.32 127.251 284.02 123.595 287.134C121.134 289.218 119.013 288.91 116.411 287.307C85.1613 268.328 59.0664 243.879 38.1757 213.856C34.3465 208.381 31.0291 202.535 27.2986 196.998C25.7633 194.741 25.831 192.928 27.4712 190.838C30.8564 186.497 34.2417 182.187 37.3185 177.673C38.2805 176.237 38.9279 173.98 38.6196 172.34C29.9315 129.837 37.5589 90.6819 63.8573 56.0407C89.3973 22.3922 123.354 2.8703 165.925 0.373024C239.961 -3.93709 293.816 50.2322 306.401 105.795C326.2 193.132 265.47 263.333 200.671 276.565C191.904 278.333 182.97 279.123 173.975 280.241ZM287.045 134.831C286.225 105.456 273.437 75.5009 246.694 51.8046C204.087 14.0495 138.399 13.7411 96.5438 52.2793C64.9487 81.3464 53.153 117.905 60.3304 160.439C72.1323 230.128 143.567 272.909 210.481 250.273C256.474 234.679 286.978 191.079 287.045 134.831Z" fill="#DDF7F9"/>
<path d="M171.207 46.1878C218.396 46.2248 258.673 81.1002 265.72 127.605C269.309 151.234 264.863 173.123 253.136 193.743C248.758 201.469 242.024 205.298 233.231 204.854C224.106 204.41 217.095 199.829 214.258 191.141C208.172 172.507 184.162 159.546 161.698 172.679C140.086 185.295 115.675 182.625 97.6513 166.384C80.6205 150.999 75.2559 125.077 84.5914 103.261C99.2235 69.064 133.963 46.1878 171.207 46.1878Z" fill="#DDF7F9"/>
<path d="M206.882 229.264C204.408 229.866 201.849 230.169 199.318 229.892C185.462 228.373 176.199 222.336 170.738 210.566C166.156 200.688 169.985 189.811 179.185 185.673C188.588 181.431 198.571 185.741 203.017 196.1C205.311 201.434 208.764 205.269 214.504 206.977C219.055 208.309 221.003 212.07 221.244 216.516C221.515 221.233 219.295 225.099 214.985 226.844C212.231 227.918 209.329 228.668 206.882 229.264Z" fill="#DDF7F9"/>
</mask>
<g mask="url(#mask0_3745_891)">
<g filter="url(#filter0_f_3745_891)">
<circle cx="180.741" cy="233.587" r="143.96" fill="#FF58E8"/>
</g>
<g filter="url(#filter1_f_3745_891)">
<circle cx="81.4274" cy="94.1835" r="146.693" fill="#00CEF5"/>
</g>
</g>
<defs>
<filter id="filter0_f_3745_891" x="-80.2752" y="-27.4293" width="522.033" height="522.033" filterUnits="userSpaceOnUse" color-interpolation-filters="sRGB">
<feFlood flood-opacity="0" result="BackgroundImageFix"/>
<feBlend mode="normal" in="SourceGraphic" in2="BackgroundImageFix" result="shape"/>
<feGaussianBlur stdDeviation="58.5285" result="effect1_foregroundBlur_3745_891"/>
</filter>
<filter id="filter1_f_3745_891" x="-182.323" y="-169.566" width="527.5" height="527.5" filterUnits="userSpaceOnUse" color-interpolation-filters="sRGB">
<feFlood flood-opacity="0" result="BackgroundImageFix"/>
<feBlend mode="normal" in="SourceGraphic" in2="BackgroundImageFix" result="shape"/>
<feGaussianBlur stdDeviation="58.5285" result="effect1_foregroundBlur_3745_891"/>
</filter>
</defs>
</svg>

<svg xmlns="http://www.w3.org/2000/svg" width="311" height="309" fill="none"><mask id="a" width="311" height="309" x="0" y="0" maskUnits="userSpaceOnUse" style="mask-type:alpha"><path fill="#DDF7F9" d="M76.565 308.433a2.615 2.615 0 0 1-1.457-.423c-5.932-3.897-11.808-7.88-17.815-11.645-1.227-.753-3.077-1.129-4.477-.851-22.191 4.409-45-19.084-40.246-41.479.272-1.301-.518-3.077-1.3-4.347-3.213-5.266-6.5-10.458-9.953-15.557-1.677-2.498-1.572-4.613.309-6.869 4.1-4.927 8.139-9.922 12.24-14.879.936-1.129 2.854-.569 3.72.615 18.19 24.904 38.484 47.629 62.656 66.814 8.384 6.654 10.078 18.545 1.61 25.091-1.3 1.004-2.603 2.001-3.895 3.009-.408.318-.875.512-1.392.521Z"/><path fill="#DDF7F9" d="M76.565 308.433a2.615 2.615 0 0 1-1.457-.423c-5.932-3.897-11.808-7.88-17.815-11.645-1.227-.753-3.077-1.129-4.477-.851-22.191 4.409-45-19.084-40.246-41.479.272-1.301-.518-3.077-1.3-4.347-3.213-5.266-6.5-10.458-9.953-15.557-1.677-2.498-1.572-4.613.309-6.869 4.1-4.927 8.139-9.922 12.24-14.879.936-1.129 2.854-.569 3.72.615 18.19 24.904 38.484 47.629 62.656 66.814 8.384 6.654 10.078 18.545 1.61 25.091-1.3 1.004-2.603 2.001-3.895 3.009-.408.318-.875.512-1.392.521ZM171.211 46.187c47.189.037 87.466 34.912 94.514 81.417 3.589 23.629-.857 45.518-12.585 66.138-4.378 7.726-11.111 11.555-19.904 11.111-9.126-.444-16.137-5.025-18.973-13.713-6.086-18.634-30.097-31.595-52.56-18.462-21.612 12.616-46.024 9.946-64.047-6.295-17.03-15.385-22.395-41.307-13.06-63.123 14.632-34.197 49.372-57.073 86.615-57.073Z"/><path fill="#DDF7F9" d="M173.975 280.241a24.906 24.906 0 0 1-6.647-.053c-8.679-1.257-17.378-2.459-26.018-3.826-2.565-.407-4.415-.271-6.499 1.677-3.49 3.281-7.56 5.981-11.216 9.095-2.461 2.084-4.582 1.776-7.184.173-31.25-18.979-57.345-43.428-78.235-73.451-3.83-5.475-7.147-11.321-10.877-16.858-1.536-2.257-1.468-4.07.172-6.16 3.385-4.341 6.77-8.651 9.848-13.165.962-1.436 1.609-3.693 1.3-5.333-8.687-42.503-1.06-81.658 25.238-116.3C89.397 22.393 123.354 2.87 165.925.374c74.036-4.31 127.891 49.86 140.476 105.422 19.799 87.337-40.931 157.538-105.73 170.77-8.767 1.768-17.701 2.558-26.696 3.676Zm113.07-145.41c-.82-29.375-13.608-59.33-40.351-83.026-42.607-37.755-108.295-38.064-150.15.474-31.595 29.067-43.391 65.626-36.214 108.16 11.802 69.689 83.237 112.47 150.151 89.834 45.993-15.594 76.497-59.194 76.564-115.442Z"/><path fill="#DDF7F9" d="M171.207 46.188c47.189.037 87.466 34.912 94.513 81.417 3.589 23.629-.857 45.518-12.584 66.138-4.378 7.726-11.112 11.555-19.905 11.111-9.125-.444-16.136-5.025-18.973-13.713-6.086-18.634-30.096-31.595-52.56-18.462-21.612 12.616-46.023 9.946-64.047-6.295-17.03-15.385-22.395-41.307-13.06-63.123 14.633-34.197 49.372-57.073 86.616-57.073Z"/><path fill="#DDF7F9" d="M206.882 229.264c-2.474.602-5.033.905-7.564.628-13.856-1.519-23.119-7.556-28.58-19.326-4.582-9.878-.753-20.755 8.447-24.893 9.403-4.242 19.386.068 23.832 10.427 2.294 5.334 5.747 9.169 11.487 10.877 4.551 1.332 6.499 5.093 6.74 9.539.271 4.717-1.949 8.583-6.259 10.328-2.754 1.074-5.656 1.824-8.103 2.42Z"/></mask><g mask="url(#a)"><g filter="url(#b)"><circle cx="180.741" cy="233.587" r="143.96" fill="#FF58E8"/></g><g filter="url(#c)"><circle cx="81.427" cy="94.183" r="146.693" fill="#00CEF5"/></g></g><defs><filter id="b" width="522.033" height="522.033" x="-80.275" y="-27.429" color-interpolation-filters="sRGB" filterUnits="userSpaceOnUse"><feFlood flood-opacity="0" result="BackgroundImageFix"/><feBlend in="SourceGraphic" in2="BackgroundImageFix" result="shape"/><feGaussianBlur result="effect1_foregroundBlur_3745_891" stdDeviation="58.529"/></filter><filter id="c" width="527.5" height="527.5" x="-182.323" y="-169.566" color-interpolation-filters="sRGB" filterUnits="userSpaceOnUse"><feFlood flood-opacity="0" result="BackgroundImageFix"/><feBlend in="SourceGraphic" in2="BackgroundImageFix" result="shape"/><feGaussianBlur result="effect1_foregroundBlur_3745_891" stdDeviation="58.529"/></filter></defs></svg>
